X: 65
T: Domine exaudi orationem meam
N: Derived from Mar2034-Domine_exaudi_orationem_meam.krn
C: Johannes Martini
%%abc-version 2.0
%%abcx-abcm2ps-target-version 5.9.1 (29 Sep 2008)
%%abc-creator hum2abc beta
%%abcx-conversion-date 2019/02/17 07:19:42
%%abc-edited-by Jesse Rodin
%%abc-edited-by Chris Gage 03-23-2014
%%abcx-initial-encoding-date 2014/10/09/
%%humdrum-veritas 1579298809
%%humdrum-veritas-data 853151641
%%linebreak <none>
%%barnumbers 0
L: 1/4
M: 4/2
Q: 1/2=120
V: 1 clef=treble
V: 2 clef=treble-8
V: 3 clef=treble-8
K: C
[V:1] A4A2A2 | 
[V:2] e4e2e2 | 
[V:3] A4c2c2 | 
[V:1] A2A2A4 | 
[V:2] e2e2e4 | 
[V:3] c2c2A4 | 
[V:1] A4A2A2- | 
[V:2] e4e2e2- | 
[V:3] c4c2c2 | 
[V:1] A2A2A2B2- | 
[V:2] e2e2e2f2- | 
[V:3] c4c2d2- | 
[V:1] B2A4^G2 | 
[V:2] f2e4d2 | 
[V:3] d2c2B4 | 
[V:1] A4z4 | 
[V:2] e4z4 | 
[V:3] A4z4 | 
[V:1] A4A4 | 
[V:2] e4e4 | 
[V:3] c4c4 | 
[V:1] A2A2A2A2 | 
[V:2] e2e2e2e2 | 
[V:3] c2c2c2c2 | 
[V:1] A4A4 | 
[V:2] e4e4 | 
[V:3] c4c4 | 
[V:1] A2A2A4 | 
[V:2] e2e2e4 | 
[V:3] c2c2c4 | 
[V:1] G4A2B2 | 
[V:2] d4e2f2 | 
[V:3] B4c2d2 | 
[V:1] G2A4GF | 
[V:2] d2e4dc | 
[V:3] B2c4BA | 
[V:1] E2F4E2- | 
[V:2] B2c4B2- | 
[V:3] G2A4G2 | 
[V:1] E2D2E4 ||  
[V:2] B2A2B4 ||  
[V:3] F4E4 ||  
[V:1] A4A2A2 | 
[V:2] z8 | 
[V:3] A4c2c2 | 
[V:1] A4A2A2 | 
[V:2] z8 | 
[V:3] c4c2c2 | 
[V:1] A2A2A4 | 
[V:2] z8 | 
[V:3] c2c2c4 | 
[V:1] G4A2B2- | 
[V:2] z8 | 
[V:3] B4c2d2- | 
[V:1] B2A4^G2 | 
[V:2] z8 | 
[V:3] d2c2B4 | 
[V:1] A4z4 | 
[V:2] z8 | 
[V:3] A4z4 | 
[V:1] A4A4 | 
[V:2] z8 | 
[V:3] c4c4 | 
[V:1] A4A4 | 
[V:2] z8 | 
[V:3] c4c4 | 
[V:1] A2A2A2A2 | 
[V:2] z8 | 
[V:3] c2c2c2c2 | 
[V:1] A4G4 | 
[V:2] z8 | 
[V:3] c4B4 | 
[V:1] A2B2G2A2- | 
[V:2] z8 | 
[V:3] c2d2B2c2- | 
[V:1] A2GFE2F2- | 
[V:2] z8 | 
[V:3] c2BAG2A2- | 
[V:1] F2E4D2 | 
[V:2] z8 | 
[V:3] A2G2F4 | 
[V:1] E8 ||  
[V:2] z8 ||  
[V:3] E8 ||  
[V:1] A4A4 | 
[V:2] e4e4 | 
[V:3] A4c4 | 
[V:1] A2A2A2A2 | 
[V:2] e2e2e2e2 | 
[V:3] c2c2c2c2 | 
[V:1] A4A4 | 
[V:2] e4e4 | 
[V:3] A4c4 | 
[V:1] A2A2A4 | 
[V:2] e2e2e4 | 
[V:3] c2c2c4 | 
[V:1] G4F2_B2- | 
[V:2] d4c2f2- | 
[V:3] B4A2d2- | 
[V:1] B2A4G2 | 
[V:2] f2e4d2 | 
[V:3] d2c2B4 | 
[V:1] A4z4 | 
[V:2] e4z4 | 
[V:3] A4z4 | 
[V:1] A2A2A2A2 | 
[V:2] e2e2e2e2 | 
[V:3] c2c2c2c2 | 
[V:1] A4G4 | 
[V:2] e4d4 | 
[V:3] c4B4 | 
[V:1] A2B2G2A2- | 
[V:2] e2f2d2e2- | 
[V:3] c2d2B2c2- | 
[V:1] A2GFE2F2- | 
[V:2] e2dcB2c2- | 
[V:3] c2BAG2A2- | 
[V:1] F2E4D2 | 
[V:2] c2B4A2 | 
[V:3] A2G2F4 | 
[V:1] E8 ||  
[V:2] B8 ||  
[V:3] E8 ||  
[V:1] A4A2A2 | 
[V:2] z8 | 
[V:3] c4c2c2 | 
[V:1] A4A2A2 | 
[V:2] z8 | 
[V:3] c2c2c4 | 
[V:1] A2A2A4 | 
[V:2] z8 | 
[V:3] c2c2A4 | 
[V:1] A2A2A2A2 | 
[V:2] z8 | 
[V:3] c2c2c2c2 | 
[V:1] A4B2A2- | 
[V:2] z8 | 
[V:3] c4d2c2- | 
[V:1] A2G4^F2 | 
[V:2] z8 | 
[V:3] c2B2A4 | 
[V:1] G4z4 | 
[V:2] z8 | 
[V:3] G4z4 | 
[V:1] A4A2A2 | 
[V:2] z8 | 
[V:3] c4c2c2 | 
[V:1] A2A2A4 | 
[V:2] z8 | 
[V:3] c2c2c4 | 
[V:1] A2A2A4 | 
[V:2] z8 | 
[V:3] c2c2c4 | 
[V:1] G4A2B2- | 
[V:2] z8 | 
[V:3] B4c2d2- | 
[V:1] B2A4^G2 | 
[V:2] z8 | 
[V:3] d2c2B4 | 
[V:1] A4z4 | 
[V:2] z8 | 
[V:3] A4z4 | 
[V:1] A4G4 | 
[V:2] z8 | 
[V:3] c4B4 | 
[V:1] A2B2G2A2- | 
[V:2] z8 | 
[V:3] c2d2B2c2- | 
[V:1] A2GFE2F2- | 
[V:2] z8 | 
[V:3] c2BAG2A2- | 
[V:1] F2E4D2 | 
[V:2] z8 | 
[V:3] A2G2F4 | 
[V:1] E8 ||  
[V:2] z8 ||  
[V:3] E8 ||  
[V:1] A4A2A2 | 
[V:2] e4e2e2 | 
[V:3] c4c2c2 | 
[V:1] A4A2A2 | 
[V:2] e4e2e2 | 
[V:3] c4c2c2 | 
[V:1] A4A2A2 | 
[V:2] e4e2e2 | 
[V:3] c4c2c2 | 
[V:1] A4G4 | 
[V:2] e4d4 | 
[V:3] c4B4 | 
[V:1] z2A4A2 | 
[V:2] z2e4e2 | 
[V:3] c4c2c2 | 
[V:1] A2A2A4 | 
[V:2] e2e2e4 | 
[V:3] c4c4 | 
[V:1] A4A2A2 | 
[V:2] e4e2e2 | 
[V:3] c4c2c2 | 
[V:1] A4G4 | 
[V:2] e4d4 | 
[V:3] c4B4 | 
[V:1] F2_B4A2- | 
[V:2] c2f4e2- | 
[V:3] A2d4c2 | 
[V:1] A2G2A4 | 
[V:2] e2d2e4 | 
[V:3] B4A4 | 
[V:1] z4A2A2 | 
[V:2] z4e2e2 | 
[V:3] z4c2c2 | 
[V:1] A4A4 | 
[V:2] e4e4 | 
[V:3] c4c4 | 
[V:1] G2F2G2A2- | 
[V:2] d2c2d2e2- | 
[V:3] B2A2B2c2- | 
[V:1] A2GFE2F2- | 
[V:2] e2dcB2c2- | 
[V:3] c2BAG2A2- | 
[V:1] F2E4D2 | 
[V:2] c2B4A2 | 
[V:3] A2G2F4 | 
[V:1] E8 ||  
[V:2] B8 ||  
[V:3] E8 ||  
[V:1] A4A2A2 | 
[V:2] z8 | 
[V:3] c4c2c2 | 
[V:1] A4A2A2 | 
[V:2] z8 | 
[V:3] c4c2c2 | 
[V:1] A4B2A2- | 
[V:2] z8 | 
[V:3] c4d2c2- | 
[V:1] A2G4^F2 | 
[V:2] z8 | 
[V:3] c2B2A4 | 
[V:1] G4z4 | 
[V:2] z8 | 
[V:3] G4z4 | 
[V:1] A2A2A4 | 
[V:2] z8 | 
[V:3] c2c2c4 | 
[V:1] A4A2A2 | 
[V:2] z8 | 
[V:3] c4c2c2 | 
[V:1] A4G4 | 
[V:2] z8 | 
[V:3] c4B4 | 
[V:1] A2B2G2A2- | 
[V:2] z8 | 
[V:3] c2d2B2c2- | 
[V:1] A2GFE2F2- | 
[V:2] z8 | 
[V:3] c2BAG2A2- | 
[V:1] F2E4D2 | 
[V:2] z8 | 
[V:3] A2G2F4 | 
[V:1] E8 ||  
[V:2] z8 ||  
[V:3] E8 ||  
[V:1] A4A2A2 | 
[V:2] e4e2e2 | 
[V:3] A4c2c2 | 
[V:1] A4G4 | 
[V:2] e4d4 | 
[V:3] c4B4 | 
[V:1] F2G2A2B2- | 
[V:2] c2d2e2f2- | 
[V:3] A2B2c2d2- | 
[V:1] B2A4^G2 | 
[V:2] f2e4d2 | 
[V:3] d2c2B4 | 
[V:1] A4z4 | 
[V:2] e4z4 | 
[V:3] A4z4 | 
[V:1] A4A2A2 | 
[V:2] e4e2e2 | 
[V:3] c4c2c2 | 
[V:1] A4G2A2- | 
[V:2] e4d2e2- | 
[V:3] c4B2c2- | 
[V:1] A2GFE2F2- | 
[V:2] e2dcB2c2- | 
[V:3] c2BAG2A2- | 
[V:1] F2E4D2 | 
[V:2] c2B4A2 | 
[V:3] A2G2F4 | 
[V:1] E8 ||  
[V:2] B8 ||  
[V:3] E8 ||  
[V:1] A4A2A2 | 
[V:2] z8 | 
[V:3] c4c2c2 | 
[V:1] A4A4 | 
[V:2] z8 | 
[V:3] c4c4 | 
[V:1] A2A2G4 | 
[V:2] z8 | 
[V:3] c2c2B4 | 
[V:1] A2B4A2- | 
[V:2] z8 | 
[V:3] c2d4c2 | 
[V:1] A2^G2A4 | 
[V:2] z8 | 
[V:3] B4A4 | 
[V:1] z4A2A2 | 
[V:2] z8 | 
[V:3] z4c2c2 | 
[V:1] A2A2A2A2 | 
[V:2] z8 | 
[V:3] c2c2c2c2 | 
[V:1] A4A4 | 
[V:2] z8 | 
[V:3] c4c4 | 
[V:1] A4G4 | 
[V:2] z8 | 
[V:3] c4B4 | 
[V:1] A4G2F2- | 
[V:2] z8 | 
[V:3] c4B2A2- | 
[V:1] F2E4D2 | 
[V:2] z8 | 
[V:3] A2G2F4 | 
[V:1] E8 ||  
[V:2] z8 ||  
[V:3] E8 ||  
[V:1] A4A2A2 | 
[V:2] e4e2e2 | 
[V:3] A4c2c2 | 
[V:1] A4A2A2 | 
[V:2] e4e2e2 | 
[V:3] c4c2c2 | 
[V:1] A4G4 | 
[V:2] e4d4 | 
[V:3] c4B4 | 
[V:1] A4G2A2 | 
[V:2] e4d2e2 | 
[V:3] c4B2c2 | 
[V:1] B2c4B2- | 
[V:2] f2g4f2- | 
[V:3] d2e4d2- | 
[V:1] B2A4^G2 | 
[V:2] f2e4d2 | 
[V:3] d2c2B4 | 
[V:1] A4z4 | 
[V:2] e4z4 | 
[V:3] A4z4 | 
[V:1] A4A2A2 | 
[V:2] e4e2e2 | 
[V:3] c4c2c2 | 
[V:1] A4G2A2- | 
[V:2] e4d2e2- | 
[V:3] c4B2c2- | 
[V:1] A2GFE2F2- | 
[V:2] e2dcB2c2- | 
[V:3] c2BAG2A2- | 
[V:1] F2E4D2 | 
[V:2] c2B4A2 | 
[V:3] A2G2F4 | 
[V:1] E8 ||  
[V:2] B8 ||  
[V:3] E8 ||  
[V:1] A4A2A2 | 
[V:2] z8 | 
[V:3] c4c2c2 | 
[V:1] A2A2A4 | 
[V:2] z8 | 
[V:3] c2c2c4 | 
[V:1] A4A4 | 
[V:2] z8 | 
[V:3] c4A4 | 
[V:1] A2G2A4 | 
[V:2] z8 | 
[V:3] c2B2c4 | 
[V:1] A2B4A2- | 
[V:2] z8 | 
[V:3] c2d4c2 | 
[V:1] A2^G2A4 | 
[V:2] z8 | 
[V:3] B4A4 | 
[V:1] z4A4 | 
[V:2] z8 | 
[V:3] z4c4 | 
[V:1] G4F4 | 
[V:2] z8 | 
[V:3] B4A4 | 
[V:1] G2A4GF | 
[V:2] z8 | 
[V:3] B2c4BA | 
[V:1] E2F4E2- | 
[V:2] z8 | 
[V:3] G2A4G2 | 
[V:1] E2D2E4 ||  
[V:2] z8 ||  
[V:3] F4E4 ||  
[V:1] A2A2A4 | 
[V:2] e2e2e4 | 
[V:3] c2c2c4 | 
[V:1] A4A2A2 | 
[V:2] e4e2e2 | 
[V:3] c4c2c2 | 
[V:1] A2A2G4 | 
[V:2] e2e2d4 | 
[V:3] c2c2B4 | 
[V:1] G4A4 | 
[V:2] d4e4 | 
[V:3] B4c4 | 
[V:1] A2A2A4 | 
[V:2] e2e2e4 | 
[V:3] c2c2c4 | 
[V:1] G4F2_B2- | 
[V:2] d4c2f2- | 
[V:3] B4A2d2- | 
[V:1] B2A4G2 | 
[V:2] f2e4d2 | 
[V:3] d2c2B4 | 
[V:1] A4z4 | 
[V:2] e4z4 | 
[V:3] A4z4 | 
[V:1] A2A2A4 | 
[V:2] e2e2e4 | 
[V:3] c2c2c4 | 
[V:1] A2A2A4 | 
[V:2] e2e2e4 | 
[V:3] c2c2A4 | 
[V:1] A2A2A2A2- | 
[V:2] e2e2e2e2- | 
[V:3] c2c2c2c2- | 
[V:1] A2A2A4 | 
[V:2] e2e2e4 | 
[V:3] c2c2A4 | 
[V:1] A2A2G2G2 | 
[V:2] e2e2d2d2 | 
[V:3] c2c2B2B2 | 
[V:1] A2GFE2F2- | 
[V:2] e2dcB2c2- | 
[V:3] c2BAG2A2- | 
[V:1] F2E4D2 | 
[V:2] c2B4A2 | 
[V:3] A2G2F4 | 
[V:1] E8 ||  
[V:2] B8 ||  
[V:3] E8 ||  
[V:1] A4A2A2 | 
[V:2] z8 | 
[V:3] c4c2c2 | 
[V:1] A4A4 | 
[V:2] z8 | 
[V:3] c4c4 | 
[V:1] A4A4 | 
[V:2] z8 | 
[V:3] c4c4 | 
[V:1] A4A2A2 | 
[V:2] z8 | 
[V:3] c4c2c2 | 
[V:1] A4G4 | 
[V:2] z8 | 
[V:3] c4B4 | 
[V:1] A2B4A2- | 
[V:2] z8 | 
[V:3] c2d4c2 | 
[V:1] A2^G2A4 | 
[V:2] z8 | 
[V:3] B4A4 | 
[V:1] z4A2A2 | 
[V:2] z8 | 
[V:3] z4c2c2 | 
[V:1] A2A2A2A2 | 
[V:2] z8 | 
[V:3] c2c2c2c2 | 
[V:1] A2A2A4 | 
[V:2] z8 | 
[V:3] c2c2c4 | 
[V:1] A2A2A4 | 
[V:2] z8 | 
[V:3] c2c2c4 | 
[V:1] G4F4 | 
[V:2] z8 | 
[V:3] B4A4 | 
[V:1] G2A4GF | 
[V:2] z8 | 
[V:3] B2c4BA | 
[V:1] E2F4E2- | 
[V:2] z8 | 
[V:3] G2A4G2 | 
[V:1] E2D2E4 ||  
[V:2] z8 ||  
[V:3] F4E4 ||  
[V:1] A2A2A4 | 
[V:2] e2e2e4 | 
[V:3] c2c2A4 | 
[V:1] A2A2A2A2 | 
[V:2] e2e2e2e2 | 
[V:3] c2c2c2c2 | 
[V:1] A2A2A4 | 
[V:2] e2e2e4 | 
[V:3] c2c2A4 | 
[V:1] G2A2B2c2- | 
[V:2] d2e2f2g2- | 
[V:3] B2c2d2e2- | 
[V:1] c2BAG2A2- | 
[V:2] g2fed2e2- | 
[V:3] e2dcB2A2 | 
[V:1] A2^G2A4 | 
[V:2] e2d2e4 | 
[V:3] B4A4 | 
[V:1] z4A4 | 
[V:2] z4e4 | 
[V:3] z4A4 | 
[V:1] A4A4 | 
[V:2] e4e4 | 
[V:3] c4c4 | 
[V:1] A2A2A2A2 | 
[V:2] e2e2e2e2 | 
[V:3] c2c2c2c2 | 
[V:1] A4G2A2- | 
[V:2] e4d2e2- | 
[V:3] c4B2c2- | 
[V:1] A2GFE4 | 
[V:2] e2dcB4 | 
[V:3] c2BAG4 | 
[V:1] F2G2A4 | 
[V:2] c2d2e4 | 
[V:3] A2B2c4 | 
[V:1] G2A2B2G2 | 
[V:2] d2e2f2d2 | 
[V:3] B2c2d2B2 | 
[V:1] A2GFE2F2- | 
[V:2] e2dcB2c2- | 
[V:3] c2BAG2A2- | 
[V:1] F2E4D2 | 
[V:2] c2B4A2 | 
[V:3] A2G2F4 | 
[V:1] E8 ||  
[V:2] B8 ||  
[V:3] E8 ||  
[V:1] A4A2A2 | 
[V:2] z8 | 
[V:3] c4c2c2 | 
[V:1] A4A4 | 
[V:2] z8 | 
[V:3] c4c4 | 
[V:1] A4A2A2 | 
[V:2] z8 | 
[V:3] c4c2c2 | 
[V:1] A4z2A2 | 
[V:2] z8 | 
[V:3] A4c4 | 
[V:1] G2F2G4 | 
[V:2] z8 | 
[V:3] B2A2B4 | 
[V:1] A4z4 | 
[V:2] z8 | 
[V:3] A4z4 | 
[V:1] A2A2A4 | 
[V:2] z8 | 
[V:3] A2c2c4 | 
[V:1] A2A2A2A2 | 
[V:2] z8 | 
[V:3] c2c2c2c2 | 
[V:1] A4G4 | 
[V:2] z8 | 
[V:3] c4B4 | 
[V:1] F4G2A2- | 
[V:2] z8 | 
[V:3] A4B2c2- | 
[V:1] A2GFE2F2- | 
[V:2] z8 | 
[V:3] c2BAG2A2- | 
[V:1] F2E4D2 | 
[V:2] z8 | 
[V:3] A2G2F4 | 
[V:1] E8 |]  
[V:2] z8 |]  
[V:3] E8 |]  



